mobile/24/svg/add-to-homescreen-24.svg

<svg width="24" height="24" viewBox="0 0 24 24" fill="none" xmlns="http://www.w3.org/2000/svg">
<path fill-rule="evenodd" clip-rule="evenodd" d="M6.25 4.5C6.25 4.08625 6.58625 3.75 7 3.75H17C17.4138 3.75 17.75 4.08625 17.75 4.5V5H19.5V4.5C19.5 3.11975 18.3802 2 17 2H7C5.61975 2 4.5 3.11975 4.5 4.5V19.5C4.5 20.8802 5.61975 22 7 22H17C18.3802 22 19.5 20.8802 19.5 19.5V13.5H17.75V17H6.25V4.5ZM10 20.25H14V18.75H10V20.25Z" fill="black"/>
<path d="M13 13.5H11V15.5H13V13.5Z" fill="black"/>
<path d="M11 10.25H13V12.25H11V10.25Z" fill="black"/>
<path d="M16.25 13.5H14.25V15.5H16.25V13.5Z" fill="black"/>
<path d="M7.75 13.5H9.75V15.5H7.75V13.5Z" fill="black"/>
<path d="M15.53 7.483C15.058 7.011 14.25 7.345 14.25 8.013V11.5C14.25 11.914 14.586 12.25 15 12.25H18.487C19.155 12.25 19.49 11.442 19.017 10.97L17.8922 9.8452L21.9997 5.73771L20.7622 4.50027L16.6548 8.60776L15.53 7.483Z" fill="black"/>
</svg>

<svg width="24" height="24" fill="none" xmlns="http://www.w3.org/2000/svg"><path fill-rule="evenodd" clip-rule="evenodd" d="M6.25 4.5A.75.75 0 0 1 7 3.75h10a.75.75 0 0 1 .75.75V5h1.75v-.5A2.5 2.5 0 0 0 17 2H7a2.5 2.5 0 0 0-2.5 2.5v15A2.5 2.5 0 0 0 7 22h10a2.5 2.5 0 0 0 2.5-2.5v-6h-1.75V17H6.25V4.5zM10 20.25h4v-1.5h-4v1.5z" fill="#000"/><path d="M13 13.5h-2v2h2v-2zM11 10.25h2v2h-2v-2zM16.25 13.5h-2v2h2v-2zM7.75 13.5h2v2h-2v-2zM15.53 7.483a.75.75 0 0 0-1.28.53V11.5c0 .414.336.75.75.75h3.487a.75.75 0 0 0 .53-1.28l-1.125-1.125L22 5.738 20.762 4.5l-4.107 4.108-1.125-1.125z" fill="#000"/></svg>
